; generated by Slic3r 1.2.9 on 2015-10-27 at 10:14:54

; external perimeters extrusion width = 0.50mm
; perimeters extrusion width = 0.50mm
; infill extrusion width = 0.50mm
; solid infill extrusion width = 0.50mm
; top infill extrusion width = 0.50mm
; support material extrusion width = 0.50mm

M107
M190 S50 ; set bed temperature
M104 S195 ; set temperature
G28 ; home all axes
G1 Z5 F5000 ; lift nozzle

M109 S195 ; wait for temperature to be reached
G21 ; set units to millimeters
G90 ; use absolute coordinates
M82 ; use absolute distances for extrusion
G92 E0
G1 E-3.50000 F1200.00000
G92 E0
G1 Z0.200 F3600.000
G1 X77.517 Y87.481 F3600.000
G1 E3.50000 F1200.00000
G1 X78.492 Y86.565 E3.51747 F810.000
G1 X79.083 Y86.074 E3.52750
G1 X80.250 Y85.237 E3.54626
G1 X81.007 Y84.758 E3.55796
G1 X82.057 Y84.166 E3.57370
G1 X82.614 Y83.895 E3.58180
G1 X83.432 Y83.547 E3.59340
G1 X84.075 Y83.292 E3.60245
G1 X84.622 Y83.104 E3.60999
G1 X85.227 Y82.927 E3.61823
G1 X86.027 Y82.718 E3.62903
G1 X86.912 Y82.529 E3.64085
G1 X87.380 Y82.452 E3.64705
G1 X88.482 Y82.313 E3.66156
G1 X89.158 Y82.264 E3.67040
G1 X90.390 Y82.254 E3.68650
G1 X90.903 Y82.260 E3.69320 F810.000
G1 X91.615 Y82.310 E3.70252
G1 X93.215 Y82.525 E3.72361
G1 X93.845 Y82.653 E3.73200
G1 X94.759 Y82.888 E3.74433
G1 X95.348 Y83.052 E3.75231
G1 X95.966 Y83.260 E3.76083
G1 X96.827 Y83.601 E3.77292
G1 X97.553 Y83.924 E3.78331
G1 X98.370 Y84.334 E3.79525
G1 X99.204 Y84.794 E3.80768
G1 X99.855 Y85.208 E3.81776
G1 X100.990 Y86.033 E3.83609
G1 X101.592 Y86.530 E3.84628
G1 X102.670 Y87.543 E3.86560
G1 X103.196 Y88.106 E3.87567
G1 X103.839 Y88.883 E3.88884
G1 X104.261 Y89.418 E3.89773
G1 X104.620 Y89.926 E3.90587
G1 X105.429 Y91.233 E3.92595
G1 X105.845 Y92.027 E3.93765
G1 X106.095 Y92.558 E3.94532
G1 X106.388 Y93.209 E3.95465
G1 X106.631 Y93.839 E3.96346
G1 X107.037 Y95.089 E3.98062
G1 X107.230 Y95.836 E3.99070
G1 X107.394 Y96.686 E4.00201
G1 X107.528 Y97.448 E4.01212
G1 X107.612 Y98.148 E4.02132
G1 X107.681 Y99.541 E4.03954
G1 X107.667 Y100.599 E4.05335
G1 X107.625 Y101.245 E4.06181
G1 X107.470 Y102.585 E4.07944
G1 X107.223 Y103.745 E4.09492
G1 X106.362 Y106.493 E4.13254
G1 X105.981 Y107.434 E4.14580
G1 X105.407 Y108.579 E4.16253
G1 X104.840 Y109.504 E4.17670
G1 X103.237 Y111.671 E4.21190
G1 X102.483 Y112.519 E4.22673
G1 X101.508 Y113.435 E4.24420
G1 X100.917 Y113.926 E4.25423
G1 X100.101 Y114.523 E4.26744
G1 X98.993 Y115.243 E4.28469
G1 X97.943 Y115.834 E4.30043
G1 X97.386 Y116.105 E4.30853
G1 X96.568 Y116.453 E4.32013
G1 X95.924 Y116.708 E4.32918
G1 X95.378 Y116.896 E4.33672
G1 X94.565 Y117.130 E4.34777
G1 X93.663 Y117.354 E4.35992
G1 X92.620 Y117.548 E4.37378
G1 X91.518 Y117.687 E4.38829
G1 X90.842 Y117.736 E4.39713
G1 X89.097 Y117.740 E4.41992
G1 X88.385 Y117.690 E4.42925
G1 X87.414 Y117.568 E4.44203
G1 X86.785 Y117.475 E4.45034
G1 X86.155 Y117.347 E4.45873
G1 X84.652 Y116.948 E4.47904
G1 X84.034 Y116.740 E4.48755
G1 X83.173 Y116.399 E4.49965
G1 X82.447 Y116.076 E4.51003
G1 X81.630 Y115.666 E4.52197
G1 X80.796 Y115.206 E4.53441
G1 X80.145 Y114.792 E4.54449
G1 X79.010 Y113.967 E4.56281
G1 X78.408 Y113.470 E4.57301
G1 X77.697 Y112.803 E4.58574
G1 X77.330 Y112.457 E4.59233
G1 X76.804 Y111.894 E4.60239
G1 X75.739 Y110.582 E4.62446
G1 X75.380 Y110.074 E4.63259
G1 X74.571 Y108.767 E4.65267
G1 X74.155 Y107.973 E4.66438
G1 X73.905 Y107.442 E4.67204
G1 X73.612 Y106.791 E4.68137
G1 X73.369 Y106.161 E4.69019
G1 X72.963 Y104.911 E4.70735
G1 X72.770 Y104.164 E4.71743
G1 X72.626 Y103.422 E4.72730
G1 X72.472 Y102.552 E4.73884
G1 X72.388 Y101.852 E4.74804
G1 X72.319 Y100.459 E4.76627
G1 X72.333 Y99.401 E4.78008
G1 X72.375 Y98.755 E4.78854
G1 X72.530 Y97.414 E4.80617
G1 X72.777 Y96.255 E4.82166
G1 X73.639 Y93.505 E4.85929
G1 X74.019 Y92.565 E4.87254
G1 X74.592 Y91.421 E4.88925
G1 X75.160 Y90.496 E4.90342
G1 X76.762 Y88.329 E4.93862
G1 X77.467 Y87.537 E4.95248
G1 X77.584 Y87.641 F3600.000
G1 X78.600 Y86.679 E4.97074 F810.000
G1 X79.176 Y86.201 E4.98052
G1 X80.334 Y85.370 E4.99914
G1 X81.091 Y84.890 E5.01084
G1 X82.133 Y84.304 E5.02646
G1 X82.676 Y84.039 E5.03435
G1 X83.489 Y83.693 E5.04590
G1 X84.133 Y83.438 E5.05494
G1 X84.666 Y83.255 E5.06230
G1 X85.271 Y83.078 E5.07053
G1 X86.066 Y82.870 E5.08127
G1 X86.943 Y82.683 E5.09298
G1 X88.502 Y82.469 E5.11353
G1 X89.161 Y82.421 E5.12216
G1 X90.388 Y82.411 E5.13819
G1 X90.901 Y82.417 E5.14489 F810.000
G1 X91.596 Y82.465 E5.15398
G1 X93.192 Y82.680 E5.17502
G1 X93.806 Y82.805 E5.18320
G1 X94.720 Y83.040 E5.19553
G1 X95.306 Y83.203 E5.20347
G1 X95.908 Y83.406 E5.21177
G1 X96.769 Y83.747 E5.22387
G1 X97.488 Y84.067 E5.23414
G1 X98.295 Y84.472 E5.24594
G1 X99.128 Y84.931 E5.25837
G1 X99.763 Y85.335 E5.26819
G1 X100.898 Y86.160 E5.28652
G1 X101.484 Y86.644 E5.29645
G1 X102.562 Y87.657 E5.31577
G1 X103.075 Y88.206 E5.32558
G1 X103.718 Y88.983 E5.33875
G1 X104.137 Y89.514 E5.34759
G1 X104.487 Y90.010 E5.35553
G1 X105.291 Y91.307 E5.37545
G1 X105.703 Y92.094 E5.38705
G1 X105.953 Y92.625 E5.39472
G1 X106.245 Y93.274 E5.40401
G1 X106.481 Y93.888 E5.41261
G1 X106.887 Y95.137 E5.42976
G1 X107.075 Y95.866 E5.43959
G1 X107.239 Y96.713 E5.45087
G1 X107.373 Y97.475 E5.46097
G1 X107.455 Y98.157 E5.46994
G1 X107.524 Y99.539 E5.48801
G1 X107.510 Y100.597 E5.50183
G1 X107.469 Y101.227 E5.51007
G1 X107.314 Y102.567 E5.52770
G1 X107.073 Y103.698 E5.54280
G1 X106.212 Y106.446 E5.58042
G1 X105.841 Y107.364 E5.59334
G1 X105.267 Y108.509 E5.61007
G1 X104.713 Y109.410 E5.62389
G1 X103.111 Y111.577 E5.65909
G1 X102.375 Y112.405 E5.67355
G1 X101.400 Y113.321 E5.69102
G1 X100.824 Y113.799 E5.70081
G1 X100.009 Y114.397 E5.71401
G1 X98.909 Y115.110 E5.73113
G1 X97.867 Y115.696 E5.74674
G1 X97.324 Y115.961 E5.75463
G1 X96.511 Y116.307 E5.76618
G1 X95.867 Y116.562 E5.77523
G1 X95.334 Y116.745 E5.78258
G1 X94.526 Y116.978 E5.79357
G1 X93.631 Y117.200 E5.80561
G1 X92.600 Y117.392 E5.81931
G1 X91.498 Y117.531 E5.83382
G1 X90.839 Y117.579 E5.84245
G1 X89.099 Y117.583 E5.86518
G1 X88.404 Y117.535 E5.87427
G1 X87.433 Y117.412 E5.88705
G1 X86.808 Y117.319 E5.89531
G1 X86.194 Y117.195 E5.90349
G1 X84.694 Y116.797 E5.92376
G1 X84.092 Y116.594 E5.93206
G1 X83.231 Y116.253 E5.94416
G1 X82.512 Y115.933 E5.95443
G1 X81.705 Y115.528 E5.96622
G1 X80.872 Y115.069 E5.97865
G1 X80.237 Y114.665 E5.98848
G1 X79.102 Y113.840 E6.00680
G1 X78.516 Y113.356 E6.01674
G1 X77.804 Y112.689 E6.02948
G1 X77.438 Y112.343 E6.03606
G1 X76.925 Y111.794 E6.04587
G1 X75.863 Y110.486 E6.06788
G1 X75.513 Y109.990 E6.07581
G1 X74.709 Y108.693 E6.09574
G1 X74.297 Y107.906 E6.10734
G1 X74.047 Y107.375 E6.11500
G1 X73.755 Y106.726 E6.12429
G1 X73.519 Y106.112 E6.13289
G1 X73.113 Y104.863 E6.15005
G1 X72.924 Y104.134 E6.15987
G1 X72.780 Y103.392 E6.16975
G1 X72.626 Y102.525 E6.18126
G1 X72.545 Y101.843 E6.19023
G1 X72.476 Y100.461 E6.20830
G1 X72.490 Y99.403 E6.22211
G1 X72.531 Y98.773 E6.23036
G1 X72.686 Y97.432 E6.24799
G1 X72.927 Y96.302 E6.26309
G1 X73.789 Y93.552 E6.30072
G1 X74.160 Y92.635 E6.31364
G1 X74.733 Y91.492 E6.33035
G1 X75.286 Y90.590 E6.34417
G1 X76.889 Y88.423 E6.37937
G1 X77.534 Y87.697 E6.39206
G1 F2880
G1 X78.600 Y86.679 E5.80905
G1 F2880
G1 X79.176 Y86.201 E5.51269
G1 F2880
G1 X80.334 Y85.370 E4.94816
G1 F2880
G1 X81.091 Y84.890 E4.59372
G1 F2880
G1 X82.133 Y84.304 E4.12047
G1 F2880
G1 X82.676 Y84.039 E3.88131
G1 F2880
G1 X83.489 Y83.693 E3.53129
G1 F2880
G1 X84.133 Y83.438 E3.25718
G1 F2880
G1 X84.587 Y83.282 E3.06706
G1 E2.89206 F1200.00000
G92 E0
G1 X93.495 Y99.666 F3600.000
G1 E3.50000 F1200.00000
G1 X93.516 Y100.000 E3.50437 F810.000
G1 X93.488 Y100.441 E3.51014
G1 X93.406 Y100.874 E3.51591
G1 X93.269 Y101.294 E3.52167
G1 X93.081 Y101.694 E3.52744
G1 X92.845 Y102.067 E3.53321
G1 X92.563 Y102.407 E3.53898
G1 X92.241 Y102.709 E3.54474
G1 X91.884 Y102.969 E3.55051
G1 X91.497 Y103.181 E3.55628
G1 X91.087 Y103.344 E3.56205
G1 X90.659 Y103.454 E3.56781
G1 X90.221 Y103.509 E3.57358
G1 X89.779 Y103.509 E3.57935
G1 X89.341 Y103.454 E3.58511
G1 X88.913 Y103.344 E3.59088
G1 X88.503 Y103.181 E3.59665
G1 X88.116 Y102.969 E3.60242
G1 X87.759 Y102.709 E3.60818
G1 X87.437 Y102.407 E3.61395
G1 X87.155 Y102.067 E3.61972
G1 X86.919 Y101.694 E3.62549
G1 X86.731 Y101.294 E3.63125
G1 X86.594 Y100.874 E3.63702
G1 X86.512 Y100.441 E3.64279
G1 X86.484 Y100.000 E3.64855
G1 X86.512 Y99.559 E3.65432
G1 X86.594 Y99.126 E3.66009
G1 X86.731 Y98.706 E3.66586
G1 X86.919 Y98.306 E3.67162
G1 X87.155 Y97.933 E3.67739
G1 X87.437 Y97.593 E3.68316
G1 X87.759 Y97.291 E3.68893
G1 X88.116 Y97.031 E3.69469
G1 X88.503 Y96.819 E3.70046
G1 X88.913 Y96.656 E3.70623
G1 X89.341 Y96.546 E3.71199
G1 X89.779 Y96.491 E3.71776
G1 X90.221 Y96.491 E3.72353
G1 X90.536 Y96.531 E3.72768
G1 X91.087 Y96.656 E3.73505 F810.000
G1 X91.497 Y96.819 E3.74082
G1 X91.884 Y97.031 E3.74659
G1 X92.241 Y97.291 E3.75236
G1 X92.563 Y97.593 E3.75812
G1 X92.845 Y97.933 E3.76389
G1 X93.081 Y98.306 E3.76966
G1 X93.269 Y98.706 E3.77542
G1 X93.406 Y99.126 E3.78119
G1 X93.490 Y99.591 E3.78737
G1 X93.647 Y99.581 F3600.000
G1 X93.673 Y100.000 E3.79285 F810.000
G1 X93.645 Y100.460 E3.79888
G1 X93.558 Y100.914 E3.80490
G1 X93.416 Y101.352 E3.81093
G1 X93.219 Y101.770 E3.81695
G1 X92.972 Y102.159 E3.82298
G1 X92.678 Y102.515 E3.82900
G1 X92.342 Y102.830 E3.83503
G1 X92.076 Y103.023 E3.83931
G1 X91.968 Y103.102 E3.84106
G1 X91.564 Y103.324 E3.84708
G1 X91.135 Y103.494 E3.85311
G1 X90.688 Y103.608 E3.85913
G1 X90.231 Y103.666 E3.86516
G1 X89.769 Y103.666 E3.87118
G1 X89.312 Y103.608 E3.87721
G1 X88.865 Y103.494 E3.88323
G1 X88.436 Y103.324 E3.88926
G1 X88.032 Y103.102 E3.89528
G1 X87.658 Y102.830 E3.90131
G1 X87.322 Y102.515 E3.90734
G1 X87.028 Y102.159 E3.91336
G1 X86.781 Y101.770 E3.91939
G1 X86.584 Y101.352 E3.92541
G1 X86.442 Y100.914 E3.93144
G1 X86.355 Y100.460 E3.93746
G1 X86.327 Y100.000 E3.94349
G1 X86.355 Y99.540 E3.94951
G1 X86.442 Y99.086 E3.95554
G1 X86.584 Y98.648 E3.96156
G1 X86.781 Y98.230 E3.96759
G1 X87.028 Y97.841 E3.97361
G1 X87.322 Y97.485 E3.97964
G1 X87.658 Y97.170 E3.98567
G1 X88.032 Y96.898 E3.99169
G1 X88.436 Y96.676 E3.99772
G1 X88.865 Y96.506 E4.00374
G1 X89.312 Y96.392 E4.00977
G1 X89.769 Y96.334 E4.01579
G1 X90.231 Y96.334 E4.02182
G1 X90.556 Y96.375 E4.02610
G1 X90.688 Y96.392 E4.02784 F810.000
G1 X91.135 Y96.506 E4.03387
G1 X91.564 Y96.676 E4.03989
G1 X91.968 Y96.898 E4.04592
G1 X92.342 Y97.170 E4.05195
G1 X92.678 Y97.485 E4.05797
G1 X92.972 Y97.841 E4.06400
G1 X93.219 Y98.230 E4.07002
G1 X93.416 Y98.648 E4.07605
G1 X93.558 Y99.086 E4.08207
G1 X93.638 Y99.507 E4.08766
G1 X93.793 Y99.477 F3600.000
G1 X93.831 Y100.000 E4.09451 F810.000
G1 X93.801 Y100.480 E4.10079
G1 X93.711 Y100.953 E4.10707
G1 X93.562 Y101.410 E4.11336
G1 X93.357 Y101.846 E4.11964
G1 X93.099 Y102.252 E4.12592
G1 X92.793 Y102.622 E4.13221
G1 X92.442 Y102.952 E4.13849
G1 X92.053 Y103.235 E4.14478
G1 X91.631 Y103.466 E4.15106
G1 X91.184 Y103.643 E4.15734
G1 X90.718 Y103.763 E4.16363
G1 X90.241 Y103.823 E4.16991
G1 X89.759 Y103.823 E4.17619
G1 X89.282 Y103.763 E4.18248
G1 X88.816 Y103.643 E4.18876
G1 X88.369 Y103.466 E4.19504
G1 X87.947 Y103.235 E4.20133
G1 X87.558 Y102.952 E4.20761
G1 X87.207 Y102.622 E4.21389
G1 X86.901 Y102.252 E4.22018
G1 X86.643 Y101.846 E4.22646
G1 X86.438 Y101.410 E4.23275
G1 X86.289 Y100.953 E4.23903
G1 X86.199 Y100.480 E4.24531
G1 X86.169 Y100.000 E4.25160
G1 X86.199 Y99.520 E4.25788
G1 X86.289 Y99.047 E4.26416
G1 X86.438 Y98.590 E4.27045
G1 X86.643 Y98.154 E4.27673
G1 X86.901 Y97.748 E4.28301
G1 X87.207 Y97.378 E4.28930
G1 X87.558 Y97.048 E4.29558
G1 X87.947 Y96.765 E4.30186
G1 X88.369 Y96.534 E4.30815
G1 X88.816 Y96.357 E4.31443
G1 X89.282 Y96.237 E4.32072
G1 X89.759 Y96.177 E4.32700
G1 X90.241 Y96.177 E4.33328
G1 X90.576 Y96.219 E4.33770
G1 X90.718 Y96.237 E4.33957 F810.000
G1 X91.184 Y96.357 E4.34585
G1 X91.631 Y96.534 E4.35213
G1 X92.053 Y96.765 E4.35842
G1 X92.442 Y97.048 E4.36470
G1 X92.793 Y97.378 E4.37098
G1 X93.099 Y97.748 E4.37727
G1 X93.357 Y98.154 E4.38355
G1 X93.562 Y98.590 E4.38983
G1 X93.711 Y99.047 E4.39612
G1 X93.779 Y99.404 E4.40086
G1 X93.390 Y99.774 F3600.000
G1 X93.243 Y98.922 F3600.000
G1 X91.074 Y96.753 E4.44187 F810.000
G1 X90.767 Y96.674 E4.44610
G1 X93.340 Y99.247 E4.49475
G1 X93.394 Y99.528 E4.49858
G1 X90.474 Y96.608 E4.55379
G1 X90.214 Y96.575 E4.55729
G1 X93.420 Y99.781 E4.61792
G1 X93.424 Y100.013 E4.62102
G1 X89.982 Y96.571 E4.68611
G1 X89.755 Y96.571 E4.68915
G1 X93.417 Y100.233 E4.75840
G1 X93.409 Y100.453 E4.76134
G1 X89.553 Y96.596 E4.83425
G1 X89.351 Y96.622 E4.83698
G1 X93.374 Y100.645 E4.91304
G1 X93.337 Y100.836 E4.91564
G1 X89.168 Y96.666 E4.99449
G1 X88.987 Y96.713 E4.99699
G1 X93.286 Y101.012 E5.07828
G1 X93.230 Y101.183 E5.08069
G1 X88.817 Y96.770 E5.16415
G1 X88.654 Y96.834 E5.16649
G1 X93.167 Y101.348 E5.25185
G1 X93.095 Y101.503 E5.25413
G1 X88.493 Y96.902 E5.34114
G1 X88.347 Y96.982 E5.34337
G1 X93.022 Y101.657 E5.43178
G1 X92.935 Y101.798 E5.43399
G1 X88.200 Y97.063 E5.52353
G1 X88.062 Y97.153 E5.52572
G1 X92.847 Y101.937 E5.61619
G1 X92.754 Y102.072 E5.61838
G1 X87.931 Y97.249 E5.70958
G1 X87.812 Y97.357 E5.71173
G1 X92.651 Y102.196 E5.80324
G1 X92.538 Y102.310 E5.80539
G1 X87.698 Y97.471 E5.89690
G1 X87.584 Y97.584 E5.89905
G1 X92.424 Y102.424 E5.99057
G1 X92.310 Y102.538 E5.99272
G1 X87.471 Y97.698 E6.08423
G1 X87.357 Y97.812 E6.08638
G1 X92.196 Y102.651 E6.17789
G1 X92.069 Y102.751 E6.18006
G1 X87.246 Y97.928 E6.27126
G1 X87.153 Y98.063 E6.27344
G1 X91.936 Y102.846 E6.36388
G1 X91.793 Y102.930 E6.36610
G1 X87.065 Y98.202 E6.45550
G1 X86.978 Y98.343 E6.45771
G1 X91.649 Y103.014 E6.54604
G1 X91.506 Y103.098 E6.54826
G1 X86.905 Y98.497 E6.63525
G1 X86.833 Y98.652 E6.63754
G1 X91.346 Y103.166 E6.72289
G1 X91.183 Y103.230 E6.72523
G1 X86.770 Y98.817 E6.80869
G1 X86.714 Y98.988 E6.81110
G1 X91.013 Y103.287 E6.89239
G1 X90.832 Y103.334 E6.89489
G1 X86.663 Y99.164 E6.97374
G1 X86.626 Y99.355 E6.97634
G1 X90.649 Y103.378 E7.05240
G1 X90.447 Y103.404 E7.05512
G1 X86.591 Y99.547 E7.12804
G1 X86.583 Y99.767 E7.13098
G1 X90.245 Y103.429 E7.20023
G1 X90.018 Y103.429 E7.20327
G1 X86.576 Y99.987 E7.26836
G1 X86.580 Y100.219 E7.27146
G1 X89.786 Y103.425 E7.33208
G1 X89.526 Y103.392 E7.33559
G1 X86.606 Y100.472 E7.39080
G1 X86.660 Y100.753 E7.39463
G1 X89.243 Y103.336 E7.44347
G1 X88.926 Y103.247 E7.44786
G1 X86.757 Y101.078 E7.48887
G1 X86.921 Y101.469 F3600.000
G1 X88.538 Y103.086 E7.51945 F810.000
G1 X87.918 Y102.694 F3600.000
G1 X87.378 Y102.154 E7.52967 F810.000
G1 X91.462 Y96.914 F3600.000
G1 X93.079 Y98.531 E7.56025 F810.000
G1 X92.622 Y97.846 F3600.000
G1 X92.082 Y97.306 E7.57047 F810.000
G1 F2880
G1 X92.622 Y97.846 E7.26788
G1 E4.07047 F1200.00000
G92 E0
G1 Z0.200 F3600.000
G1 X99.085 Y99.893 F3600.000
G1 E3.50000 F1200.00000
G1 X100.828 Y96.415 E3.64785 F810.000
G1 X100.625 Y95.790 E3.67282
G1 X99.028 Y98.978 E3.80833
G1 X98.886 Y98.232 E3.83721
G1 X100.382 Y95.247 E3.96411
G1 X100.132 Y94.716 E3.98641
G1 X98.714 Y97.544 E4.10666
G1 X98.511 Y96.919 E4.13162
G1 X99.865 Y94.218 E4.24645
G1 X99.577 Y93.764 E4.26690
G1 X98.274 Y96.363 E4.37739
G1 X98.024 Y95.832 E4.39970
G1 X99.288 Y93.309 E4.50692
G1 X98.974 Y92.907 E4.52633
G1 X97.745 Y95.360 E4.63057
G1 X97.456 Y94.905 E4.65103
G1 X98.652 Y92.519 E4.75247
G1 X98.331 Y92.130 E4.77163
G1 X97.147 Y94.492 E4.87205
G1 X96.826 Y94.104 E4.89121
G1 X97.981 Y91.799 E4.98918
G1 X97.630 Y91.470 E5.00748
G1 X96.494 Y93.736 E5.10383
G1 X96.143 Y93.406 E5.12212
G1 X97.279 Y91.141 E5.21843
G1 X96.900 Y90.866 E5.23620
G1 X95.792 Y93.077 E5.33018
G1 X95.415 Y92.800 E5.34797
G1 X96.522 Y90.591 E5.44186
G1 X96.144 Y90.317 E5.45964
G1 X95.037 Y92.525 E5.55352
G1 X94.645 Y92.276 E5.57115
G1 X95.740 Y90.093 E5.66398
G1 X95.335 Y89.871 E5.68153
G1 X94.241 Y92.054 E5.77434
G1 X93.836 Y91.832 E5.79189
G1 X94.922 Y89.664 E5.88405
G1 X94.503 Y89.472 E5.90160
G1 X93.405 Y91.661 E5.99469
G1 X92.975 Y91.491 E6.01229
G1 X94.072 Y89.301 E6.10538
G1 X93.641 Y89.131 E6.12298
G1 X92.530 Y91.348 E6.21726
G1 X92.073 Y91.231 E6.23520
G1 X93.189 Y89.004 E6.32988
G1 X92.732 Y88.886 E6.34782
G1 X91.613 Y91.118 E6.44271
G1 X91.128 Y91.057 E6.46131
G1 X92.274 Y88.769 E6.55858
