; generated by Slic3r 1.2.9 on 2015-11-16 at 08:16:46

; external perimeters extrusion width = 0.50mm
; perimeters extrusion width = 0.50mm
; infill extrusion width = 0.50mm
; solid infill extrusion width = 0.50mm
; top infill extrusion width = 0.50mm

M107 ; disable fan
M190 S50 ; set bed temperature
M104 S195 ; set temperature
G28 ; home all axes
G1 Z5 F5000 ; lift nozzle

M109 S195 ; wait for temperature to be reached
G21 ; set units to millimeters
G90 ; use absolute coordinates
M82 ; use absolute distances for extrusion
G92 E0 ; reset extrusion distance
G1 E-3.50000 F1200.00000 ; retract
G92 E0 ; reset extrusion distance
G1 Z0.200 F3600.000 ; move to next layer (0)
G1 X75.223 Y85.871 F3600.000 ; move to first skirt point
G1 E3.50000 F1200.00000 ; unretract
G1 X76.964 Y84.463 E3.52924 F810.000 ; skirt
G1 X80.000 Y83.686 E3.57017 ; skirt
G1 X100.000 Y83.686 E3.83139 ; skirt
G1 X102.203 Y84.083 E3.86063 ; skirt
G1 X104.129 Y85.223 E3.88987 F810.000 ; skirt
G1 X105.537 Y86.964 E3.91911 ; skirt
G1 X106.314 Y90.000 E3.96004 ; skirt
G1 X106.314 Y110.000 E4.22126 ; skirt
G1 X105.917 Y112.203 E4.25050 ; skirt
G1 X104.777 Y114.129 E4.27974 ; skirt
G1 X103.036 Y115.537 E4.30898 ; skirt
G1 X100.000 Y116.314 E4.34991 ; skirt
G1 X80.000 Y116.314 E4.61114 ; skirt
G1 X77.797 Y115.917 E4.64037 ; skirt
G1 X75.871 Y114.777 E4.66961 ; skirt
G1 X74.463 Y113.036 E4.69885 ; skirt
G1 X73.686 Y110.000 E4.73978 ; skirt
G1 X73.686 Y90.000 E5.00101 ; skirt
G1 X74.083 Y87.797 E5.03024 ; skirt
G1 X75.185 Y85.935 E5.05850 ; skirt
G1 X75.326 Y86.020 F3600.000 ; move to first skirt point
G1 X75.379 Y85.931 E5.05985 F810.000 ; skirt
G1 X77.113 Y84.561 E5.08872 ; skirt
G1 X80.000 Y83.843 E5.12757 ; skirt
G1 X100.000 Y83.843 E5.38880 ; skirt
G1 X102.174 Y84.240 E5.41767 ; skirt
G1 X104.069 Y85.379 E5.44654 F810.000 ; skirt
G1 X105.439 Y87.113 E5.47541 ; skirt
G1 X106.157 Y90.000 E5.51426 ; skirt
G1 X106.157 Y110.000 E5.77548 ; skirt
G1 X105.760 Y112.174 E5.80435 ; skirt
G1 X104.621 Y114.069 E5.83322 ; skirt
G1 X102.887 Y115.439 E5.86209 ; skirt
G1 X100.000 Y116.157 E5.90095 ; skirt
G1 X80.000 Y116.157 E6.16217 ; skirt
G1 X77.826 Y115.760 E6.19104 ; skirt
G1 X75.931 Y114.621 E6.21991 ; skirt
G1 X74.561 Y112.887 E6.24878 ; skirt
G1 X73.843 Y110.000 E6.28763 ; skirt
G1 X73.843 Y90.000 E6.54886 ; skirt
G1 X74.240 Y87.826 E6.57773 ; skirt
G1 X75.287 Y86.084 E6.60427 ; skirt
G1 F2880
G1 X75.379 Y85.931 E6.53376 ; wipe and retract
G1 F2880
G1 X77.113 Y84.561 E5.65883 ; wipe and retract
G1 F2880
G1 X80.000 Y83.843 E4.48138 ; wipe and retract
G1 F2880
G1 X83.037 Y83.843 E3.27927 ; wipe and retract
G1 E3.10427 F1200.00000 ; retract
G92 E0 ; reset extrusion distance
G1 X80.414 Y96.665 F3600.000 ; move to first perimeter point
G1 E3.50000 F1200.00000 ; unretract
G1 X80.414 Y90.414 E3.58165 F810.000 ; perimeter
G1 X99.586 Y90.414 E3.83205 ; perimeter
G1 X99.586 Y109.586 E4.08246 ; perimeter
G1 X80.414 Y109.586 E4.33286 F810.000 ; perimeter
G1 X80.414 Y96.740 E4.50064 ; perimeter
G1 X80.257 Y96.740 F3600.000 ; move to first perimeter point
G1 X80.257 Y90.257 E4.58532 F810.000 ; perimeter
G1 X99.743 Y90.257 E4.83983 ; perimeter
G1 X99.743 Y109.743 E5.09434 ; perimeter
G1 X80.257 Y109.743 E5.34885 F810.000 ; perimeter
G1 X80.257 Y96.815 E5.51770 ; perimeter
G1 X80.100 Y96.815 F3600.000 ; move to first perimeter point
G1 X80.100 Y90.100 E5.60541 F567.000 ; perimeter
G1 X99.900 Y90.100 E5.86402 ; perimeter
G1 X99.900 Y109.900 E6.12263 ; perimeter
G1 X80.100 Y109.900 E6.38124 F567.000 ; perimeter
G1 X80.100 Y96.890 E6.55117 ; perimeter
G1 X80.533 Y96.565 F3600.000 ; move inwards before travel
G1 X80.823 Y109.506 F3600.000 ; move to first infill point
G1 X80.494 Y109.177 E6.55725 F810.000 ; infill
G1 X80.494 Y108.954 E6.56016 ; infill
G1 X81.046 Y109.506 E6.57036 ; infill
G1 X81.268 Y109.506 E6.57326 ; infill
G1 X80.494 Y108.732 E6.58757 ; infill
G1 X80.494 Y108.510 E6.59048 ; infill
G1 X81.490 Y109.506 E6.60890 ; infill
G1 X81.713 Y109.506 E6.61181 ; infill
G1 X80.494 Y108.287 E6.63435 ; infill
G1 X80.494 Y108.065 E6.63725 ; infill
G1 X81.935 Y109.506 E6.66390 ; infill
G1 X82.158 Y109.506 E6.66681 ; infill
G1 X80.494 Y107.842 E6.69757 ; infill
G1 X80.494 Y107.620 E6.70048 ; infill
G1 X82.380 Y109.506 E6.73535 ; infill
G1 X82.603 Y109.506 E6.73826 ; infill
G1 X80.494 Y107.397 E6.77725 ; infill
G1 X80.494 Y107.175 E6.78016 ; infill
G1 X82.825 Y109.506 E6.82326 ; infill
G1 X83.047 Y109.506 E6.82617 ; infill
G1 X80.494 Y106.953 E6.87338 ; infill
G1 X80.494 Y106.730 E6.87629 ; infill
G1 X83.270 Y109.506 E6.92761 ; infill
G1 X83.492 Y109.506 E6.93052 ; infill
G1 X80.494 Y106.508 E6.98596 ; infill
G1 X80.494 Y106.285 E6.98887 ; infill
G1 X83.715 Y109.506 E7.04842 ; infill
G1 X83.937 Y109.506 E7.05133 ; infill
G1 X80.494 Y106.063 E7.11500 ; infill
G1 X80.494 Y105.841 E7.11791 ; infill
G1 X84.159 Y109.506 E7.18569 ; infill
G1 X84.382 Y109.506 E7.18859 ; infill
G1 X80.494 Y105.618 E7.26049 ; infill
G1 X80.494 Y105.396 E7.26339 ; infill
G1 X84.604 Y109.506 E7.33940 ; infill
G1 X84.827 Y109.506 E7.34231 ; infill
G1 X80.494 Y105.173 E7.42243 ; infill
G1 X80.494 Y104.951 E7.42533 ; infill
G1 X85.049 Y109.506 E7.50957 ; infill
G1 X85.271 Y109.506 E7.51247 ; infill
G1 X80.494 Y104.729 E7.60082 ; infill
G1 X80.494 Y104.506 E7.60373 ; infill
G1 X85.494 Y109.506 E7.69618 ; infill
G1 X85.716 Y109.506 E7.69909 ; infill
G1 X80.494 Y104.284 E7.79566 ; infill
G1 X80.494 Y104.061 E7.79857 ; infill
G1 X85.939 Y109.506 E7.89925 ; infill
G1 X86.161 Y109.506 E7.90216 ; infill
G1 X80.494 Y103.839 E8.00696 ; infill
G1 X80.494 Y103.617 E8.00987 ; infill
G1 X86.383 Y109.506 E8.11878 ; infill
G1 X86.606 Y109.506 E8.12169 ; infill
G1 X80.494 Y103.394 E8.23471 ; infill
G1 X80.494 Y103.172 E8.23762 ; infill
G1 X86.828 Y109.506 E8.35475 ; infill
G1 X87.051 Y109.506 E8.35766 ; infill
G1 X80.494 Y102.949 E8.47891 ; infill
G1 X80.494 Y102.727 E8.48182 ; infill
G1 X87.273 Y109.506 E8.60718 ; infill
G1 X87.496 Y109.506 E8.61009 ; infill
G1 X80.494 Y102.504 E8.73957 ; infill
G1 X80.494 Y102.282 E8.74247 ; infill
G1 X87.718 Y109.506 E8.87606 ; infill
G1 X87.940 Y109.506 E8.87897 ; infill
G1 X80.494 Y102.060 E9.01667 ; infill
G1 X80.494 Y101.837 E9.01958 ; infill
G1 X88.163 Y109.506 E9.16139 ; infill
G1 X88.385 Y109.506 E9.16430 ; infill
G1 X80.494 Y101.615 E9.31023 ; infill
G1 X80.494 Y101.392 E9.31314 ; infill
G1 X88.608 Y109.506 E9.46318 ; infill
G1 X88.830 Y109.506 E9.46609 ; infill
G1 X80.494 Y101.170 E9.62024 ; infill
G1 X80.494 Y100.948 E9.62315 ; infill
G1 X89.052 Y109.506 E9.78142 ; infill
G1 X89.275 Y109.506 E9.78433 ; infill
G1 X80.494 Y100.725 E9.94671 ; infill
G1 X80.494 Y100.503 E9.94961 ; infill
G1 X89.497 Y109.506 E10.11611 ; infill
G1 X89.720 Y109.506 E10.11902 ; infill
G1 X80.494 Y100.280 E10.28962 ; infill
G1 X80.494 Y100.058 E10.29253 ; infill
G1 X89.942 Y109.506 E10.46725 ; infill
G1 X90.164 Y109.506 E10.47016 ; infill
G1 X80.494 Y99.836 E10.64899 ; infill
G1 X80.494 Y99.613 E10.65190 ; infill
G1 X90.387 Y109.506 E10.83484 ; infill
G1 X90.609 Y109.506 E10.83775 ; infill
G1 X80.494 Y99.391 E11.02481 ; infill
G1 X80.494 Y99.168 E11.02772 ; infill
G1 X90.832 Y109.506 E11.21889 ; infill
G1 X91.054 Y109.506 E11.22180 ; infill
G1 X80.494 Y98.946 E11.41709 ; infill
G1 X80.494 Y98.724 E11.41999 ; infill
G1 X91.276 Y109.506 E11.61939 ; infill
G1 X91.499 Y109.506 E11.62230 ; infill
G1 X80.494 Y98.501 E11.82581 ; infill
G1 X80.494 Y98.279 E11.82872 ; infill
G1 X91.721 Y109.506 E12.03634 ; infill
G1 X91.944 Y109.506 E12.03925 ; infill
G1 X80.494 Y98.056 E12.25099 ; infill
G1 X80.494 Y97.834 E12.25390 ; infill
G1 X92.166 Y109.506 E12.46975 ; infill
G1 X92.388 Y109.506 E12.47266 ; infill
G1 X80.494 Y97.611 E12.69262 ; infill
G1 X80.494 Y97.389 E12.69553 ; infill
G1 X92.611 Y109.506 E12.91960 ; infill
G1 X92.833 Y109.506 E12.92251 ; infill
G1 X80.494 Y97.167 E13.15070 ; infill
G1 X80.494 Y96.944 E13.15361 ; infill
G1 X93.056 Y109.506 E13.38591 ; infill
G1 X93.278 Y109.506 E13.38882 ; infill
G1 X80.494 Y96.722 E13.62524 ; infill
G1 X80.494 Y96.499 E13.62815 ; infill
G1 X93.501 Y109.506 E13.86867 ; infill
G1 X93.723 Y109.506 E13.87158 ; infill
G1 X80.494 Y96.277 E14.11623 ; infill
G1 X80.494 Y96.055 E14.11913 ; infill
G1 X93.945 Y109.506 E14.36789 ; infill
G1 X94.168 Y109.506 E14.37080 ; infill
G1 X80.494 Y95.832 E14.62367 ; infill
G1 X80.494 Y95.610 E14.62657 ; infill
G1 X94.390 Y109.506 E14.88355 ; infill
G1 X94.613 Y109.506 E14.88646 ; infill
G1 X80.494 Y95.387 E15.14756 ; infill
G1 X80.494 Y95.165 E15.15047 ; infill
G1 X94.835 Y109.506 E15.41567 ; infill
G1 X95.057 Y109.506 E15.41858 ; infill
G1 X80.494 Y94.943 E15.68790 ; infill
G1 X80.494 Y94.720 E15.69081 ; infill
G1 X95.280 Y109.506 E15.96424 ; infill
G1 X95.502 Y109.506 E15.96715 ; infill
G1 X80.494 Y94.498 E16.24470 ; infill
G1 X80.494 Y94.275 E16.24761 ; infill
G1 X95.725 Y109.506 E16.52927 ; infill
G1 X95.947 Y109.506 E16.53218 ; infill
G1 X80.494 Y94.053 E16.81795 ; infill
G1 X80.494 Y93.831 E16.82086 ; infill
G1 X96.169 Y109.506 E17.11074 ; infill
G1 X96.392 Y109.506 E17.11365 ; infill
G1 X80.494 Y93.608 E17.40765 ; infill
G1 X80.494 Y93.386 E17.41056 ; infill
G1 X96.614 Y109.506 E17.70867 ; infill
G1 X96.837 Y109.506 E17.71158 ; infill
G1 X80.494 Y93.163 E18.01381 ; infill
G1 X80.494 Y92.941 E18.01671 ; infill
G1 X97.059 Y109.506 E18.32305 ; infill
G1 X97.281 Y109.506 E18.32596 ; infill
G1 X80.494 Y92.718 E18.63641 ; infill
G1 X80.494 Y92.496 E18.63932 ; infill
G1 X97.504 Y109.506 E18.95388 ; infill
G1 X97.726 Y109.506 E18.95679 ; infill
G1 X80.494 Y92.274 E19.27547 ; infill
G1 X80.494 Y92.051 E19.27838 ; infill
G1 X97.949 Y109.506 E19.60117 ; infill
G1 X98.171 Y109.506 E19.60408 ; infill
G1 X80.494 Y91.829 E19.93098 ; infill
G1 X80.494 Y91.606 E19.93389 ; infill
G1 X98.394 Y109.506 E20.26491 ; infill
G1 X98.616 Y109.506 E20.26782 ; infill
G1 X80.494 Y91.384 E20.60295 ; infill
G1 X80.494 Y91.162 E20.60585 ; infill
G1 X98.838 Y109.506 E20.94510 ; infill
G1 X99.061 Y109.506 E20.94801 ; infill
G1 X80.494 Y90.939 E21.29136 ; infill
G1 X80.494 Y90.717 E21.29427 ; infill
G1 X99.283 Y109.506 E21.64174 ; infill
G1 X99.486 Y109.486 E21.64440 ; infill
G1 X80.514 Y90.514 E21.99524 ; infill
G1 X80.717 Y90.494 E21.99790 ; infill
G1 X99.506 Y109.283 E22.34538 ; infill
G1 X99.506 Y109.061 E22.34828 ; infill
G1 X80.939 Y90.494 E22.69164 ; infill
G1 X81.161 Y90.494 E22.69455 ; infill
G1 X99.506 Y108.839 E23.03380 ; infill
G1 X99.506 Y108.616 E23.03671 ; infill
G1 X81.384 Y90.494 E23.37184 ; infill
G1 X81.606 Y90.494 E23.37475 ; infill
G1 X99.506 Y108.394 E23.70577 ; infill
G1 X99.506 Y108.171 E23.70868 ; infill
G1 X81.829 Y90.494 E24.03558 ; infill
G1 X82.051 Y90.494 E24.03849 ; infill
G1 X99.506 Y107.949 E24.36128 ; infill
G1 X99.506 Y107.726 E24.36419 ; infill
G1 X82.274 Y90.494 E24.68287 ; infill
G1 X82.496 Y90.494 E24.68578 ; infill
G1 X99.506 Y107.504 E25.00035 ; infill
G1 X99.506 Y107.282 E25.00326 ; infill
G1 X82.718 Y90.494 E25.31371 ; infill
G1 X82.941 Y90.494 E25.31662 ; infill
G1 X99.506 Y107.059 E25.62296 ; infill
G1 X99.506 Y106.837 E25.62587 ; infill
G1 X83.163 Y90.494 E25.92810 ; infill
G1 X83.386 Y90.494 E25.93101 ; infill
G1 X99.506 Y106.614 E26.22912 ; infill
G1 X99.506 Y106.392 E26.23203 ; infill
G1 X83.608 Y90.494 E26.52603 ; infill
G1 X83.830 Y90.494 E26.52894 ; infill
G1 X99.506 Y106.170 E26.81883 ; infill
G1 X99.506 Y105.947 E26.82174 ; infill
G1 X84.053 Y90.494 E27.10751 ; infill
G1 X84.275 Y90.494 E27.11042 ; infill
G1 X99.506 Y105.725 E27.39208 ; infill
G1 X99.506 Y105.502 E27.39499 ; infill
G1 X84.498 Y90.494 E27.67254 ; infill
G1 X84.720 Y90.494 E27.67545 ; infill
G1 X99.506 Y105.280 E27.94889 ; infill
G1 X99.506 Y105.058 E27.95179 ; infill
G1 X84.942 Y90.494 E28.22112 ; infill
G1 X85.165 Y90.494 E28.22403 ; infill
G1 X99.506 Y104.835 E28.48924 ; infill
G1 X99.506 Y104.613 E28.49215 ; infill
G1 X85.387 Y90.494 E28.75324 ; infill
G1 X85.610 Y90.494 E28.75615 ; infill
G1 X99.506 Y104.390 E29.01313 ; infill
G1 X99.506 Y104.168 E29.01604 ; infill
G1 X85.832 Y90.494 E29.26891 ; infill
G1 X86.054 Y90.494 E29.27182 ; infill
G1 X99.506 Y103.946 E29.52058 ; infill
G1 X99.506 Y103.723 E29.52349 ; infill
G1 X86.277 Y90.494 E29.76813 ; infill
G1 X86.499 Y90.494 E29.77104 ; infill
G1 X99.506 Y103.501 E30.01157 ; infill
G1 X99.506 Y103.278 E30.01448 ; infill
G1 X86.722 Y90.494 E30.25090 ; infill
G1 X86.944 Y90.494 E30.25381 ; infill
G1 X99.506 Y103.056 E30.48611 ; infill
G1 X99.506 Y102.833 E30.48902 ; infill
G1 X87.167 Y90.494 E30.71722 ; infill
G1 X87.389 Y90.494 E30.72012 ; infill
G1 X99.506 Y102.611 E30.94420 ; infill
G1 X99.506 Y102.389 E30.94711 ; infill
G1 X87.611 Y90.494 E31.16708 ; infill
G1 X87.834 Y90.494 E31.16999 ; infill
G1 X99.506 Y102.166 E31.38584 ; infill
G1 X99.506 Y101.944 E31.38875 ; infill
G1 X88.056 Y90.494 E31.60049 ; infill
G1 X88.279 Y90.494 E31.60340 ; infill
G1 X99.506 Y101.721 E31.81102 ; infill
G1 X99.506 Y101.499 E31.81393 ; infill
G1 X88.501 Y90.494 E32.01745 ; infill
G1 X88.723 Y90.494 E32.02035 ; infill
G1 X99.506 Y101.277 E32.21975 ; infill
G1 X99.506 Y101.054 E32.22266 ; infill
G1 X88.946 Y90.494 E32.41795 ; infill
G1 X89.168 Y90.494 E32.42086 ; infill
G1 X99.506 Y100.832 E32.61203 ; infill
G1 X99.506 Y100.609 E32.61494 ; infill
G1 X89.391 Y90.494 E32.80200 ; infill
G1 X89.613 Y90.494 E32.80491 ; infill
G1 X99.506 Y100.387 E32.98786 ; infill
G1 X99.506 Y100.165 E32.99077 ; infill
G1 X89.835 Y90.494 E33.16960 ; infill
G1 X90.058 Y90.494 E33.17251 ; infill
G1 X99.506 Y99.942 E33.34723 ; infill
G1 X99.506 Y99.720 E33.35014 ; infill
G1 X90.280 Y90.494 E33.52075 ; infill
G1 X90.503 Y90.494 E33.52366 ; infill
G1 X99.506 Y99.497 E33.69016 ; infill
G1 X99.506 Y99.275 E33.69306 ; infill
G1 X90.725 Y90.494 E33.85545 ; infill
G1 X90.947 Y90.494 E33.85836 ; infill
G1 X99.506 Y99.053 E34.01663 ; infill
G1 X99.506 Y98.830 E34.01953 ; infill
G1 X91.170 Y90.494 E34.17369 ; infill
G1 X91.392 Y90.494 E34.17660 ; infill
G1 X99.506 Y98.608 E34.32664 ; infill
G1 X99.506 Y98.385 E34.32955 ; infill
G1 X91.615 Y90.494 E34.47548 ; infill
G1 X91.837 Y90.494 E34.47839 ; infill
G1 X99.506 Y98.163 E34.62021 ; infill
G1 X99.506 Y97.940 E34.62312 ; infill
G1 X92.060 Y90.494 E34.76082 ; infill
G1 X92.282 Y90.494 E34.76373 ; infill
G1 X99.506 Y97.718 E34.89732 ; infill
G1 X99.506 Y97.496 E34.90023 ; infill
G1 X92.504 Y90.494 E35.02971 ; infill
G1 X92.727 Y90.494 E35.03261 ; infill
G1 X99.506 Y97.273 E35.15798 ; infill
G1 X99.506 Y97.051 E35.16089 ; infill
G1 X92.949 Y90.494 E35.28214 ; infill
G1 X93.172 Y90.494 E35.28505 ; infill
G1 X99.506 Y96.828 E35.40219 ; infill
G1 X99.506 Y96.606 E35.40510 ; infill
G1 X93.394 Y90.494 E35.51812 ; infill
G1 X93.616 Y90.494 E35.52103 ; infill
G1 X99.506 Y96.384 E35.62994 ; infill
G1 X99.506 Y96.161 E35.63285 ; infill
G1 X93.839 Y90.494 E35.73765 ; infill
G1 X94.061 Y90.494 E35.74056 ; infill
G1 X99.506 Y95.939 E35.84125 ; infill
G1 X99.506 Y95.716 E35.84415 ; infill
G1 X94.284 Y90.494 E35.94073 ; infill
G1 X94.506 Y90.494 E35.94364 ; infill
G1 X99.506 Y95.494 E36.03610 ; infill
G1 X99.506 Y95.272 E36.03900 ; infill
G1 X94.728 Y90.494 E36.12735 ; infill
G1 X94.951 Y90.494 E36.13026 ; infill
G1 X99.506 Y95.049 E36.21449 ; infill
G1 X99.506 Y94.827 E36.21740 ; infill
G1 X95.173 Y90.494 E36.29752 ; infill
G1 X95.396 Y90.494 E36.30043 ; infill
G1 X99.506 Y94.604 E36.37644 ; infill
G1 X99.506 Y94.382 E36.37935 ; infill
G1 X95.618 Y90.494 E36.45124 ; infill
G1 X95.840 Y90.494 E36.45415 ; infill
G1 X99.506 Y94.160 E36.52193 ; infill
G1 X99.506 Y93.937 E36.52484 ; infill
G1 X96.063 Y90.494 E36.58851 ; infill
G1 X96.285 Y90.494 E36.59142 ; infill
G1 X99.506 Y93.715 E36.65097 ; infill
G1 X99.506 Y93.492 E36.65388 ; infill
G1 X96.508 Y90.494 E36.70932 ; infill
G1 X96.730 Y90.494 E36.71223 ; infill
G1 X99.506 Y93.270 E36.76356 ; infill
G1 X99.506 Y93.047 E36.76647 ; infill
G1 X96.953 Y90.494 E36.81369 ; infill
G1 X97.175 Y90.494 E36.81660 ; infill
G1 X99.506 Y92.825 E36.85970 ; infill
G1 X99.506 Y92.603 E36.86261 ; infill
G1 X97.397 Y90.494 E36.90160 ; infill
