; generated by Slic3r 1.2.9 on 2016-02-27 at 16:14:28

; external perimeters extrusion width = 0.50mm
; perimeters extrusion width = 0.50mm
; infill extrusion width = 0.50mm
; solid infill extrusion width = 0.50mm
; top infill extrusion width = 0.50mm

M107 ; disable fan
M190 S50 ; set bed temperature
M104 S195 ; set temperature
G28 ; home all axes
G1 Z5 F5000 ; lift nozzle

M109 S195 ; wait for temperature to be reached
G21 ; set units to millimeters
G90 ; use absolute coordinates
M82 ; use absolute distances for extrusion
G92 E0 ; reset extrusion distance
G1 E-3.50000 F1200.00000 ; retract
G92 E0 ; reset extrusion distance
G1 Z0.200 F3600.000 ; move to next layer (0)
G1 X82.723 Y90.871 F3600.000 ; move to first skirt point
G1 E3.50000 F1200.00000 ; unretract
G1 X84.464 Y89.463 E3.52924 F810.000 ; skirt
G1 X87.500 Y88.686 E3.57017 ; skirt
G1 X92.500 Y88.686 E3.63547 ; skirt
G1 X94.703 Y89.083 E3.66471 ; skirt
G1 X96.629 Y90.223 E3.69395 F810.000 ; skirt
G1 X98.037 Y91.964 E3.72319 ; skirt
G1 X98.814 Y95.000 E3.76412 ; skirt
G1 X98.814 Y105.000 E3.89473 ; skirt
G1 X98.417 Y107.203 E3.92397 ; skirt
G1 X97.277 Y109.129 E3.95321 ; skirt
G1 X95.536 Y110.537 E3.98245 ; skirt
G1 X92.500 Y111.314 E4.02338 ; skirt
G1 X87.500 Y111.314 E4.08869 ; skirt
G1 X85.297 Y110.917 E4.11792 ; skirt
G1 X83.371 Y109.777 E4.14716 ; skirt
G1 X81.963 Y108.036 E4.17640 ; skirt
G1 X81.186 Y105.000 E4.21733 ; skirt
G1 X81.186 Y95.000 E4.34794 ; skirt
G1 X81.583 Y92.797 E4.37718 ; skirt
G1 X82.685 Y90.935 E4.40544 ; skirt
G1 X82.826 Y91.020 F3600.000 ; move to first skirt point
G1 X82.879 Y90.931 E4.40679 F810.000 ; skirt
G1 X84.613 Y89.561 E4.43566 ; skirt
G1 X87.500 Y88.843 E4.47451 ; skirt
G1 X92.500 Y88.843 E4.53982 ; skirt
G1 X94.674 Y89.240 E4.56869 ; skirt
G1 X96.569 Y90.379 E4.59756 F810.000 ; skirt
G1 X97.939 Y92.113 E4.62643 ; skirt
G1 X98.657 Y95.000 E4.66528 ; skirt
G1 X98.657 Y105.000 E4.79589 ; skirt
G1 X98.260 Y107.174 E4.82476 ; skirt
G1 X97.121 Y109.069 E4.85363 ; skirt
G1 X95.387 Y110.439 E4.88250 ; skirt
G1 X92.500 Y111.157 E4.92135 ; skirt
G1 X87.500 Y111.157 E4.98666 ; skirt
G1 X85.326 Y110.760 E5.01553 ; skirt
G1 X83.431 Y109.621 E5.04440 ; skirt
G1 X82.061 Y107.887 E5.07327 ; skirt
G1 X81.343 Y105.000 E5.11212 ; skirt
G1 X81.343 Y95.000 E5.24273 ; skirt
G1 X81.740 Y92.826 E5.27160 ; skirt
G1 X82.787 Y91.084 E5.29815 ; skirt
G1 F2880
G1 X82.879 Y90.931 E5.22764 ; wipe and retract
G1 F2880
G1 X84.613 Y89.561 E4.35271 ; wipe and retract
G1 F2880
G1 X87.500 Y88.843 E3.17526 ; wipe and retract
G1 F2880
G1 X90.537 Y88.843 E1.97315 ; wipe and retract
G1 E1.79815 F1200.00000 ; retract
G92 E0 ; reset extrusion distance
G1 X92.086 Y100.716 F3600.000 ; move to first perimeter point
G1 E3.50000 F1200.00000 ; unretract
G1 X92.086 Y104.586 E3.55054 F810.000 ; perimeter
G1 X87.914 Y104.586 E3.60503 F810.000 ; perimeter
G1 X87.914 Y95.414 E3.72482 ; perimeter
G1 X92.086 Y95.414 E3.77931 ; perimeter
G1 X92.086 Y100.641 E3.84758 ; perimeter
G1 X92.243 Y100.641 F3600.000 ; move to first perimeter point
G1 X92.243 Y104.743 E3.90115 F810.000 ; perimeter
G1 X87.757 Y104.743 E3.95974 F810.000 ; perimeter
G1 X87.757 Y95.257 E4.08364 ; perimeter
G1 X92.243 Y95.257 E4.14223 ; perimeter
G1 X92.243 Y100.566 E4.21158 ; perimeter
G1 X92.400 Y100.566 F3600.000 ; move to first perimeter point
G1 X92.400 Y104.900 E4.26818 F810.000 ; perimeter
G1 X87.600 Y104.900 E4.33087 F810.000 ; perimeter
G1 X87.600 Y95.100 E4.45887 ; perimeter
G1 X92.400 Y95.100 E4.52157 ; perimeter
G1 X92.400 Y100.491 E4.59198 ; perimeter
G1 X91.967 Y100.816 F3600.000 ; move inwards before travel
G1 X92.006 Y95.601 F3600.000 ; move to first infill point
G1 X91.899 Y95.494 E4.59398 F810.000 ; infill
G1 X91.674 Y95.494 E4.59695 ; infill
G1 X92.006 Y95.826 E4.60314 ; infill
G1 X92.006 Y96.050 E4.60611 ; infill
G1 X91.450 Y95.494 E4.61650 ; infill
G1 X91.225 Y95.494 E4.61947 ; infill
G1 X92.006 Y96.275 E4.63406 ; infill
G1 X92.006 Y96.500 E4.63703 ; infill
G1 X91.000 Y95.494 E4.65582 ; infill
G1 X90.775 Y95.494 E4.65879 ; infill
G1 X92.006 Y96.725 E4.68178 ; infill
G1 X92.006 Y96.949 E4.68475 ; infill
G1 X90.551 Y95.494 E4.71193 ; infill
G1 X90.326 Y95.494 E4.71490 ; infill
G1 X92.006 Y97.174 E4.74629 ; infill
G1 X92.006 Y97.399 E4.74926 ; infill
G1 X90.101 Y95.494 E4.78485 ; infill
G1 X89.876 Y95.494 E4.78782 ; infill
G1 X92.006 Y97.624 E4.82760 ; infill
G1 X92.006 Y97.848 E4.83057 ; infill
G1 X89.652 Y95.494 E4.87456 ; infill
G1 X89.427 Y95.494 E4.87753 ; infill
G1 X92.006 Y98.073 E4.92571 ; infill
G1 X92.006 Y98.298 E4.92868 ; infill
G1 X89.202 Y95.494 E4.98107 ; infill
G1 X88.978 Y95.494 E4.98404 ; infill
G1 X92.006 Y98.522 E5.04062 ; infill
G1 X92.006 Y98.747 E5.04359 ; infill
G1 X88.753 Y95.494 E5.10437 ; infill
G1 X88.528 Y95.494 E5.10734 ; infill
G1 X92.006 Y98.972 E5.17232 ; infill
G1 X92.006 Y99.197 E5.17529 ; infill
G1 X88.303 Y95.494 E5.24447 ; infill
G1 X88.079 Y95.494 E5.24744 ; infill
G1 X92.006 Y99.421 E5.32082 ; infill
G1 X92.006 Y99.646 E5.32379 ; infill
G1 X87.994 Y95.635 E5.39875 ; infill
G1 X87.994 Y95.859 E5.40172 ; infill
G1 X92.006 Y99.871 E5.47667 ; infill
G1 X92.006 Y100.096 E5.47964 ; infill
G1 X87.994 Y96.084 E5.55460 ; infill
G1 X87.994 Y96.309 E5.55757 ; infill
G1 X92.006 Y100.320 E5.63252 ; infill
G1 X92.006 Y100.545 E5.63549 ; infill
G1 X87.994 Y96.534 E5.71045 ; infill
G1 X87.994 Y96.758 E5.71342 ; infill
G1 X92.006 Y100.770 E5.78837 ; infill
G1 X92.006 Y100.994 E5.79134 ; infill
G1 X87.994 Y96.983 E5.86630 ; infill
G1 X87.994 Y97.208 E5.86927 ; infill
G1 X92.006 Y101.219 E5.94423 ; infill
G1 X92.006 Y101.444 E5.94719 ; infill
G1 X87.994 Y97.433 E6.02215 ; infill
G1 X87.994 Y97.657 E6.02512 ; infill
G1 X92.006 Y101.669 E6.10008 ; infill
G1 X92.006 Y101.893 E6.10305 ; infill
G1 X87.994 Y97.882 E6.17800 ; infill
G1 X87.994 Y98.107 E6.18097 ; infill
G1 X92.006 Y102.118 E6.25593 ; infill
G1 X92.006 Y102.343 E6.25890 ; infill
G1 X87.994 Y98.331 E6.33385 ; infill
G1 X87.994 Y98.556 E6.33682 ; infill
G1 X92.006 Y102.568 E6.41178 ; infill
G1 X92.006 Y102.792 E6.41475 ; infill
G1 X87.994 Y98.781 E6.48970 ; infill
G1 X87.994 Y99.006 E6.49267 ; infill
G1 X92.006 Y103.017 E6.56763 ; infill
G1 X92.006 Y103.242 E6.57060 ; infill
G1 X87.994 Y99.230 E6.64555 ; infill
G1 X87.994 Y99.455 E6.64852 ; infill
G1 X92.006 Y103.466 E6.72348 ; infill
G1 X92.006 Y103.691 E6.72645 ; infill
G1 X87.994 Y99.680 E6.80141 ; infill
G1 X87.994 Y99.905 E6.80437 ; infill
G1 X92.006 Y103.916 E6.87933 ; infill
G1 X92.006 Y104.141 E6.88230 ; infill
G1 X87.994 Y100.129 E6.95726 ; infill
G1 X87.994 Y100.354 E6.96023 ; infill
G1 X92.006 Y104.365 E7.03518 ; infill
G1 X91.921 Y104.506 E7.03735 ; infill
G1 X87.994 Y100.579 E7.11073 ; infill
G1 X87.994 Y100.803 E7.11369 ; infill
G1 X91.697 Y104.506 E7.18287 ; infill
G1 X91.472 Y104.506 E7.18584 ; infill
G1 X87.994 Y101.028 E7.25082 ; infill
G1 X87.994 Y101.253 E7.25379 ; infill
G1 X91.247 Y104.506 E7.31458 ; infill
G1 X91.022 Y104.506 E7.31754 ; infill
G1 X87.994 Y101.478 E7.37413 ; infill
G1 X87.994 Y101.702 E7.37710 ; infill
G1 X90.798 Y104.506 E7.42948 ; infill
G1 X90.573 Y104.506 E7.43245 ; infill
G1 X87.994 Y101.927 E7.48063 ; infill
G1 X87.994 Y102.152 E7.48360 ; infill
G1 X90.348 Y104.506 E7.52759 ; infill
G1 X90.123 Y104.506 E7.53056 ; infill
G1 X87.994 Y102.377 E7.57034 ; infill
G1 X87.994 Y102.601 E7.57331 ; infill
G1 X89.899 Y104.506 E7.60890 ; infill
G1 X89.674 Y104.506 E7.61187 ; infill
G1 X87.994 Y102.826 E7.64325 ; infill
G1 X87.994 Y103.051 E7.64622 ; infill
G1 X89.449 Y104.506 E7.67341 ; infill
G1 X89.225 Y104.506 E7.67638 ; infill
G1 X87.994 Y103.275 E7.69937 ; infill
G1 X87.994 Y103.500 E7.70234 ; infill
G1 X89.000 Y104.506 E7.72112 ; infill
G1 X88.775 Y104.506 E7.72409 ; infill
G1 X87.994 Y103.725 E7.73868 ; infill
G1 X87.994 Y103.950 E7.74165 ; infill
G1 X88.550 Y104.506 E7.75204 ; infill
G1 X88.326 Y104.506 E7.75501 ; infill
G1 X87.994 Y104.174 E7.76120 ; infill
G1 X87.994 Y104.399 E7.76417 ; infill
G1 X88.101 Y104.506 E7.76616 ; infill
M106 S255 ; enable fan
M140 S45 ; wait for bed temperature to be reached
G1 F2880
G1 X87.994 Y104.399 E7.70650 ; wipe and retract
G1 F2880
G1 X87.994 Y104.174 E7.61754 ; wipe and retract
G1 F2880
G1 X88.326 Y104.506 E7.43207 ; wipe and retract
G1 F2880
G1 X88.550 Y104.506 E7.34312 ; wipe and retract
G1 F2880
G1 X87.994 Y103.950 E7.03185 ; wipe and retract
G1 F2880
G1 X87.994 Y103.725 E6.94289 ; wipe and retract
G1 F2880
G1 X88.775 Y104.506 E6.50582 ; wipe and retract
G1 F2880
G1 X89.000 Y104.506 E6.41687 ; wipe and retract
G1 F2880
G1 X87.994 Y103.500 E5.85400 ; wipe and retract
G1 F2880
G1 X87.994 Y103.275 E5.76504 ; wipe and retract
G1 F2880
G1 X89.225 Y104.506 E5.07637 ; wipe and retract
G1 F2880
G1 X89.449 Y104.506 E4.98742 ; wipe and retract
G1 F2880
G1 X88.473 Y103.530 E4.44116 ; wipe and retract
G1 E4.26616 F1200.00000 ; retract
G92 E0 ; reset extrusion distance
G1 Z0.400 F3600.000 ; move to next layer (1)
G1 X88.664 Y101.181 F3600.000 ; move to first perimeter point
G1 E3.50000 F1200.00000 ; unretract
G1 X88.664 Y96.164 E3.69067 F600.000 ; perimeter
G1 X91.336 Y96.164 E3.79221 ; perimeter
G1 X91.336 Y103.836 E4.08378 ; perimeter
G1 X88.664 Y103.836 E4.18532 F600.000 ; perimeter
G1 X88.664 Y101.256 E4.28338 ; perimeter
G1 X88.207 Y101.256 F3600.000 ; move to first perimeter point
G1 X88.207 Y95.707 E4.49426 F600.000 ; perimeter
G1 X91.793 Y95.707 E4.63055 ; perimeter
G1 X91.793 Y104.293 E4.95686 ; perimeter
G1 X88.207 Y104.293 E5.09315 F600.000 ; perimeter
G1 X88.207 Y101.331 E5.20573 ; perimeter
G1 X87.750 Y101.331 F3600.000 ; move to first perimeter point
G1 X87.750 Y95.250 E5.43684 F600.000 ; perimeter
G1 X92.250 Y95.250 E5.60787 ; perimeter
G1 X92.250 Y104.750 E5.96893 ; perimeter
G1 X87.750 Y104.750 E6.13995 F600.000 ; perimeter
G1 X87.750 Y101.406 E6.26705 ; perimeter
G1 X88.183 Y101.081 F3600.000 ; move inwards before travel
G1 X90.830 Y103.564 F3600.000 ; move to first infill point
G1 X91.064 Y103.330 E6.28021 F600.000 ; infill
G1 X91.064 Y102.654 E6.30708 ; infill
G1 X90.154 Y103.564 E6.35824 ; infill
G1 X89.478 Y103.564 E6.38512 ; infill
G1 X91.064 Y101.978 E6.47429 ; infill
G1 X91.064 Y101.302 E6.50117 ; infill
G1 X88.936 Y103.431 E6.62083 ; infill
G1 X88.936 Y102.755 E6.64771 ; infill
G1 X91.064 Y100.626 E6.76738 ; infill
G1 X91.064 Y99.950 E6.79426 ; infill
G1 X88.936 Y102.078 E6.91392 ; infill
G1 X88.936 Y101.402 E6.94080 ; infill
G1 X91.064 Y99.274 E7.06047 ; infill
G1 X91.064 Y98.598 E7.08735 ; infill
G1 X88.936 Y100.726 E7.20701 ; infill
G1 X88.936 Y100.050 E7.23389 ; infill
G1 X91.064 Y97.922 E7.35356 ; infill
G1 X91.064 Y97.245 E7.38043 ; infill
G1 X88.936 Y99.374 E7.50010 ; infill
G1 X88.936 Y98.698 E7.52698 ; infill
G1 X91.064 Y96.569 E7.64665 ; infill
G1 X90.522 Y96.436 E7.66886 ; infill
G1 X88.936 Y98.022 E7.75803 ; infill
G1 X88.936 Y97.346 E7.78490 ; infill
G1 X89.846 Y96.436 E7.83606 ; infill
G1 X89.170 Y96.436 E7.86294 ; infill
G1 X88.936 Y96.670 E7.87609 ; infill
G1 F2880
G1 X89.170 Y96.436 E7.74515 ; wipe and retract
G1 F2880
G1 X89.846 Y96.436 E7.47752 ; wipe and retract
G1 F2880
G1 X88.936 Y97.346 E6.96810 ; wipe and retract
G1 F2880
G1 X88.936 Y98.022 E6.70048 ; wipe and retract
G1 F2880
G1 X90.522 Y96.436 E5.81257 ; wipe and retract
G1 F2880
G1 X91.064 Y96.569 E5.59142 ; wipe and retract
G1 F2880
G1 X89.206 Y98.428 E4.55109 ; wipe and retract
G1 E4.37609 F1200.00000 ; retract
G92 E0 ; reset extrusion distance
G1 Z0.600 F3600.000 ; move to next layer (2)
G1 X91.336 Y100.255 F3600.000 ; move to first perimeter point
G1 E3.50000 F1200.00000 ; unretract
G1 X91.336 Y103.836 E3.63608 F600.000 ; perimeter
G1 X88.664 Y103.836 E3.73762 F600.000 ; perimeter
G1 X88.664 Y96.164 E4.02919 ; perimeter
G1 X91.336 Y96.164 E4.13073 ; perimeter
G1 X91.336 Y100.180 E4.28338 ; perimeter
G1 X91.793 Y100.180 F3600.000 ; move to first perimeter point
G1 X91.793 Y104.293 E4.43968 F600.000 ; perimeter
G1 X88.207 Y104.293 E4.57596 F600.000 ; perimeter
G1 X88.207 Y95.707 E4.90228 ; perimeter
G1 X91.793 Y95.707 E5.03856 ; perimeter
G1 X91.793 Y100.105 E5.20573 ; perimeter
G1 X92.250 Y100.105 F3600.000 ; move to first perimeter point
G1 X92.250 Y104.750 E5.38225 F600.000 ; perimeter
G1 X87.750 Y104.750 E5.55328 F600.000 ; perimeter
G1 X87.750 Y95.250 E5.91434 ; perimeter
G1 X92.250 Y95.250 E6.08537 ; perimeter
G1 X92.250 Y100.030 E6.26705 ; perimeter
G1 X91.817 Y100.355 F3600.000 ; move inwards before travel
G1 X91.064 Y96.670 F3600.000 ; move to first infill point
G1 X90.830 Y96.436 E6.28021 F600.000 ; infill
G1 X90.154 Y96.436 E6.30708 ; infill
G1 X91.064 Y97.346 E6.35824 ; infill
G1 X91.064 Y98.022 E6.38512 ; infill
G1 X89.478 Y96.436 E6.47429 ; infill
G1 X88.936 Y96.569 E6.49650 ; infill
G1 X91.064 Y98.698 E6.61617 ; infill
G1 X91.064 Y99.374 E6.64304 ; infill
G1 X88.936 Y97.245 E6.76271 ; infill
G1 X88.936 Y97.922 E6.78959 ; infill
G1 X91.064 Y100.050 E6.90926 ; infill
G1 X91.064 Y100.726 E6.93613 ; infill
G1 X88.936 Y98.598 E7.05580 ; infill
G1 X88.936 Y99.274 E7.08268 ; infill
G1 X91.064 Y101.402 E7.20235 ; infill
G1 X91.064 Y102.078 E7.22922 ; infill
G1 X88.936 Y99.950 E7.34889 ; infill
G1 X88.936 Y100.626 E7.37577 ; infill
G1 X91.064 Y102.755 E7.49543 ; infill
G1 X91.064 Y103.431 E7.52231 ; infill
G1 X88.936 Y101.302 E7.64198 ; infill
G1 X88.936 Y101.978 E7.66886 ; infill
G1 X90.522 Y103.564 E7.75803 ; infill
G1 X89.846 Y103.564 E7.78490 ; infill
G1 X88.936 Y102.654 E7.83606 ; infill
G1 X88.936 Y103.330 E7.86294 ; infill
G1 X89.170 Y103.564 E7.87609 ; infill
G1 F2880
G1 X88.936 Y103.330 E7.74515 ; wipe and retract
G1 F2880
G1 X88.936 Y102.654 E7.47752 ; wipe and retract
G1 F2880
G1 X89.846 Y103.564 E6.96810 ; wipe and retract
G1 F2880
G1 X90.522 Y103.564 E6.70048 ; wipe and retract
G1 F2880
G1 X88.936 Y101.978 E5.81257 ; wipe and retract
G1 F2880
G1 X88.936 Y101.302 E5.54495 ; wipe and retract
G1 F2880
G1 X90.711 Y103.077 E4.55109 ; wipe and retract
G1 E4.37609 F1200.00000 ; retract
G92 E0 ; reset extrusion distance
G1 Z0.800 F3600.000 ; move to next layer (3)
G1 X88.664 Y100.290 F3600.000 ; move to first perimeter point
G1 E3.50000 F1200.00000 ; unretract
G1 X88.664 Y96.164 E3.65681 F600.000 ; perimeter
G1 X91.336 Y96.164 E3.75835 ; perimeter
G1 X91.336 Y103.836 E4.04993 ; perimeter
G1 X88.664 Y103.836 E4.15147 F600.000 ; perimeter
G1 X88.664 Y100.365 E4.28338 ; perimeter
G1 X88.207 Y100.365 F3600.000 ; move to first perimeter point
G1 X88.207 Y95.707 E4.46041 F600.000 ; perimeter
G1 X91.793 Y95.707 E4.59670 ; perimeter
G1 X91.793 Y104.293 E4.92301 ; perimeter
G1 X88.207 Y104.293 E5.05930 F600.000 ; perimeter
G1 X88.207 Y100.440 E5.20573 ; perimeter
G1 X87.750 Y100.440 F3600.000 ; move to first perimeter point
G1 X87.750 Y95.250 E5.40299 F600.000 ; perimeter
G1 X92.250 Y95.250 E5.57401 ; perimeter
G1 X92.250 Y104.750 E5.93507 ; perimeter
G1 X87.750 Y104.750 E6.10610 F600.000 ; perimeter
G1 X87.750 Y100.515 E6.26705 ; perimeter
G1 X88.183 Y100.190 F3600.000 ; move inwards before travel
G1 X88.936 Y96.670 F3600.000 ; move to first infill point
G1 X89.170 Y96.436 E6.28020 F600.000 ; infill
G1 X89.846 Y96.436 E6.30708 ; infill
G1 X88.936 Y97.346 E6.35824 ; infill
G1 X88.936 Y98.022 E6.38512 ; infill
G1 X90.522 Y96.436 E6.47429 ; infill
G1 X91.064 Y96.569 E6.49650 ; infill
G1 X88.936 Y98.698 E6.61616 ; infill
G1 X88.936 Y99.374 E6.64304 ; infill
G1 X91.064 Y97.245 E6.76270 ; infill
G1 X91.064 Y97.922 E6.78958 ; infill
G1 X88.936 Y100.050 E6.90925 ; infill
G1 X88.936 Y100.726 E6.93612 ; infill
G1 X91.064 Y98.598 E7.05579 ; infill
G1 X91.064 Y99.274 E7.08267 ; infill
G1 X88.936 Y101.402 E7.20233 ; infill
G1 X88.936 Y102.078 E7.22921 ; infill
G1 X91.064 Y99.950 E7.34887 ; infill
G1 X91.064 Y100.626 E7.37575 ; infill
G1 X88.936 Y102.755 E7.49542 ; infill
G1 X88.936 Y103.431 E7.52229 ; infill
G1 X91.064 Y101.302 E7.64196 ; infill
G1 X91.064 Y101.978 E7.66884 ; infill
G1 X89.478 Y103.564 E7.75801 ; infill
G1 X90.154 Y103.564 E7.78488 ; infill
G1 X91.064 Y102.654 E7.83604 ; infill
G1 X91.064 Y103.330 E7.86292 ; infill
G1 X90.830 Y103.564 E7.87607 ; infill
